X:1
T:Title
%%score { ( 1 3 ) | ( 2 4 ) }
L:1/8
M:6/8
K:G
V:1 treble nm="Grand Piano"
V:3 treble 
V:2 bass 
V:4 bass 
V:1
 z3 z2[Q:1/4=100] [B,D] | [DGB]2 [DAc] [DBd]2 [DGB] | [CEG]2 [G,DF] [G,CE]2 [G,CE] | %3
 [B,D]2 [B,G] [CA]2 [DB] | B A2- A2 D | [DGB]2 [DAc] [DBd]2 [DGB] | [CEG]2 [G,DF] [G,CE]2 [CEG] | %7
 [^CEA]2 [B,EG] [A,DF]2[K:bass] [G,CE] | [G,^CE] [F,D]2- [F,D]2 D | z3 G3- | G6 | z3[K:bass] D3- | %12
 D6[K:treble] | z3 A3- | A6 | z3 [GB]3- | [GB]6 | z3 d3- | d6 | z3[K:bass] E3- | E6[K:treble] | %21
 z3 D3- | D6 | A2 B G2- [D,G-] |[M:5/8] G2- [E,G-] [B,G]2 | z5 |] %26
V:2
 z3 z2 G, | G,2 G, G,2 G, | C,2 C, C,2 C, | [G,,G,]2 [G,,G,] [G,,G,]2 [G,,G,] | %4
 [D,G,D] [D,F,D]2- [D,F,D]2 D, | G,2 G, G,2 G, | C,2 C, C,2 C, | A,,2 A,, A,,2 A,, | %8
 D, D,2- D,2 ^C | B,2 B, B,2 [A,,G,] | [A,,G,]2 [B,,G,] [C,G,]2 E | z3 B,3- | B,6 | z3 F3- | F6 | %15
 D,2 D, G,2 G, | G,2 G, G,2[K:treble] G | z3 B3- | B6 | z3[K:bass] C3- | C6 | z3 B,3- | B,6 | %23
 [D,F,C]2 [D,F,D] G,,2 G,, |[M:5/8] [C,E,]2 C, [G,,D,]2 | z5 |] %26
V:3
 x6 | x6 | x6 | x6 | x6 | x6 | x6 | x5[K:bass] x | x6 | G2 G z2 B, | C2 D E2 G | %11
 F2 E[K:bass] z2 G, | G,2 G, G,2[K:treble] G | F2 G z2 D | D2 D D2 [DFA] | [B,G]2 [DFA] D2 D | %16
 D2 D D2 B | B2 c z2 D | D2 D D2 B | A2 G[K:bass] z2 G, | G,2 G, G,2[K:treble] G | F2 E z2 G, | %22
 G,2 G, G,2 G | z3 .[G,B,]3 |[M:5/8] C3 z2 | x5 |] %26
V:4
 x6 | x6 | x6 | x6 | x6 | x6 | x6 | x6 | x6 | x6 | x6 | D2 C z2 G,, | G,,2 G,, G,,2 B, | %13
 .D3 z2 D, | D,2 D, D,2 D, | x6 | x5[K:treble] x | G2 A z2 G, | G,2 G, G,2 G | F2 E[K:bass] z2 C, | %20
 C,2 C, C,2 E | D2 C z2 D, | D,2 D, D,2 [D,G,B,] | x6 |[M:5/8] x5 | x5 |] %26

